X:1
T:GB/7b/1 Oxford City
%%VWML:GB-7b-1-0
F:http://www.vwml.org/record/GB/7b/1
C:Transcribed by Simon Furey and Lewis Jones
L:1/4
M:3/2
I:linebreak $
K:Dmix
D | G A G2 D3/2 E/ | =F G E D z D | G F G2 A B | c d A2 z G |$ A B/c/ d2 c B | A D E/F/ G z A | B c A2 G2 | D D D3 |]

